X:1
T:James Gibb editions
T:Exaudi me - Viadana
T:#
%%score 1 { ( 2 3 ) | 4 }
L:1/8
Q:1/4=100
M:2/2
K:F
V:1 treble nm="Solo"
V:2 treble nm="Organ"
V:3 treble 
V:4 bass 
V:1
"^Psalm 68:17-18 (Vulgate)""^Exaudi me, Domine""^Ludovico da Viadana\n(1560-1627)" z8 | d8 | %2
w: |E-|
 A4 A2 A2 | B6 B2 | A4 z4 | z4 d4- | d4 A4 | E2 E2 (F4 | E3) E D4 | G3 G G2 A2 |[M:2/2] B2 B2 A4 | %11
w: xau- di me,|Do- mi-|ne,|e\-|* xau-|di me, Do\-|* mi- ne,|quo- ni- am be-|ni- gna est,|
 z4 G3 G | G2 A2 B2 B2 | A4 z2 A2 | B2 c2 d3 d | c2 (B4 A2) | B4 z4 | z2 d2 d2 e2 | f3 e d2 (c2- | %19
w: quo- ni-|am be- ni- gna|est mi-|se- ri- cor- di-|a tu\- *|a,|mi- se- ri-|cor- di- a tu\-|
 c.B !tenuto!B2- BA/G/ A2) | B4 z2 c2 | c2 A2 B2 c2 | d3 c B2 A2- | A2 E2 E2 E2 | F4 E2 D2 | %25
w: |a: se-|cun- dum mul- ti-|tu- di- nem mi\-|* se- ra- ti-|o- num tu-|
 E4 D2 G2- | G2 A2 B4 | A4 G4 | z4 z2 G2- | G2 A2 B4 | A4 G4 | z8 | z2 A2 A2 F2 | G2 A2 B3 B | %34
w: a- rum res\-|* pi- ce|in me,|res\-|* pi- ce|in me,||Et ne a-|ver- tas fa- ci-|
 A2 (d2- d^c/=B/ c2) | d2 A2 (B3 A) | G2 ^F2 G4 | z2 A2 (d3 c) | B2 A2 G4 | z2 A2 d3 c | %40
w: em tu\- * * * *|am a pue\- *|ro tu- o,|a pue\- *|ro tu- o,|a pue\- *|
 B2 (A2- A.G !tenuto!G2- | G^F/E/ F2) G4 | z4 c3 c | c4 (f2 e2 | d2 c2 B3) B | A4 (d2 c2 | %46
w: ro tu\- * * *|* * * * o:|Quo- ni-|am tri\- *|* * * bu-|lor, tri\- *|
 B2 A2 G2 _e2) | (d2 c4 B2- | B2) A2 B2 z B | (A/G/F/G/ A/B/c/A/ B/A/G/A/ B/c/d/=B/ | %50
w: ||* bu- lor, ve-|lo\- * * * * * * * * * * * * * * *|
 ^c d2) c dA B2 | A2 Gd (c/B/A/G/ F/E/D/E/ |[Q:1/4=95][Q:1/4=95] F/G/A/B/c)B A2 d2 | dccd _e2 d2 | %54
w: * * ci- ter e- xau-|di me, ve- lo\- * * * * * * *|* * * * * ci- ter, ve-|lo- ci- ter e- xau- di|
 c4 z A (F/G/A/B/ | %55
w: me, ve- lo\- * * *|
[Q:1/4=94] c[Q:1/4=93]C/[Q:1/4=93]D/[Q:1/4=92] E/[Q:1/4=92]F/[Q:1/4=91]G/[Q:1/4=91]A/[Q:1/4=90] B/[Q:1/4=90]c/[Q:1/4=89] d2)[Q:1/4=87] G | %56
w: * * * * * * * * * * ci-|
[Q:1/4=86] B2[Q:1/4=84] B2[Q:1/4=82] A2[Q:1/4=80] A2 |[Q:1/4=80] G8 |] %58
w: ter e- xau- di|me.|
V:2
 [FAd]8 | [GBd]8 | [FAd]8 | [DGB]8 | [DFA]8- | [DFA]4 [DGB]4- | [DGB]4 [DFA]4 | [^CEA]4 [DFA]4- | %8
 [EA]4 [FA]2 [GB]2- | [DGB]2 [CEG]2 [B,DG]2 [DA]2 | [DGB]4 [DFA]4- | [DFA]4 [EG]4 | D2 D2 B,4 | %13
 [A,D^F]4 z2 [FA]2 | [GB]2 [=FAc]2 [Bd]4 | [Ac]2 B4 [FA]2 | [FB]2 d4 ^c2 | %17
 [Ad]2 [FA]2 [GB]2 [G=c]2- | c4 d2 c2- | c.B !tenuto!B4 A2 | [DFB]6 [CFA]2- | %21
 [CFA]4 [B,DG]2 [CFA]2 | [FB]4 d4- | d4 ^c4 | [Ad]4 =c2 [Gd]2 | [EA^c]4 [FAd]2 [GB]2- | %26
 [GB]2 [FA]2 [DGB]4 | [D^FA]4 [B,DG]4 | [EG]2 [=FA]2 [DFB]2 [EG]2- | [DGB]2 [FA]2 [DFB]4 | %30
 [D^FA]4 [B,DG]2 [DGB]2 | [DGB]2 [FAc]2 [Bd]2 cB | [FAc]6 [FA]2 | G2 [FA]2 [DGB]4 | A2 d4 ^c2 | %35
 d4 B3 A | G2 [^FA]2 [GB]2- G2 | [C!courtesy!=FA]4 G3 [FA] | [GB]2 A2 B2 [EG]2 | [CFA]4 G3 [FA] | %40
 B2 A2 G2- [Gd]2 | d8 | [EG]3 [EG] [EG]4 | A8 | D6 E2 | F8 | G8 | F2 G2 D3 _E | [CF]4 [DF]2 [GB]2 | %49
 [FA]4 [DG]4 | A6 B2 | A2 G2 F4- | F3 G F4- | F2 c4 =B2 | [Gc]2 A4 F2 | G3 A B3 G | [DGB]4 [^FA]4 | %57
 [G=B]8 |] %58
V:3
 x8 | x8 | x8 | x8 | x8 | x4 x4 | x4 x4 | x4 x4 | x4 D2 ^C2 | D4- x4 | x4 x4 | x4 x4 | x4 x4 | %13
 x4 x4 | x4 =F4- | F2 F2 [_EG]2 C2 | D2 B4 AG | F2 D4 E2 | F6 E2 | F4- [CF]4 | x4 x4 | x4 x4 | %22
 D4 [Gc]2 [FA]2- | [EA]8 | F4 [EA]2 D2 | x4 x4 | x4 x4 | x4 x4 | x4 x4 | x4 x4 | x4 x4 | x4 F4 | %32
 x4 x4 | x4 x4 | [DF]4 [EA]4 | [FA]4 D4- | D8 | x4 x4 | D6 x2 | x4 x4 | D8 | GA/G/ [^FA]2 [GB]4 | %42
 x8 | x8 | x8 | x8 | x8 | x4 x4 | x4 x4 | x4 x4 | z F E2 F2 D2- | D4 x4 | x4 x4 | F4 G4 | %54
 E2 F4 D2 | E4 [DF]3 _E | x4 x4 | D8 |] %58
V:4
 D,8 | G,4 D,4- | D,2 A,,2 D,4 | G,,6 G,,2 | D,2 A,,4 D,2- | D,C,B,,A,, G,,4 | D,6 A,,2 | %7
 A,,4 D,4 | A,,4 D,2 G,2- | G,2 C,2 G,2 ^F,2 | G,2 G,,2 D,2 !courtesy!=F,2- | %11
 F,E, D,2 C,3 B,,/A,,/ | G,,2 D,2 G,,2 G,,2 | D,4 A,,2 D,2 | G,2 F,2 B,,4 | F,2 D,2 _E,2 F,2 | %16
 B,,2 G,,2 D,2 E,2 | F,2 D,2 G,2 C,2 | F,E,D,C, B,,2 C,2 | D,3 E, F,4 | B,,2 B,4 F,2 | %21
 F,2 F,2 G,2 F,2 | B,,3 A,, G,,2 D,2 | A,,6 A,,2 | D,4 A,,2 B,,2 | A,,4 D,2 G,,2- | %26
 G,,2 F,,2 G,,A,,B,,C, | D,4 G,,2 G,2 | C,2 F,2 B,,2 C,2 | G,,2 D,2 B,,3 A,,/G,,/ | %30
 D,2 D,2 G,,2 G,2 | G,2 F,2 B,4 | F,6 D,2 | _E,2 D,2 G,,3 G,, | D,4 A,,4 | D,2 D,2 G,,3 G,, | %36
 G,,2 D,2 G,,2 G,2 | F,4 B,3 A, | G,2 ^F,2 G,2 C,2 | =F,4 B,,3 A,, | G,,2 D,2 B,,3 C, | %41
"^1" D,4 G,,4 | C,3 C, C,4 | F,2 E,2 D,2 C,2 | B,,2 A,,2 G,,3 G,, | D,2 C,2 B,,2 A,,2 | %46
 G,,2 D,2 _E,2 C,2 | D,2 E,2 F,2 G,2 | F,4 B,,2 G,,2 | D,2 F,2 G,2 G,2 | F,D, A,2 D,2 G,2- | %51
 G,F, G,2 A,2 B,B,, | D,/E,/F,/G,/ A,G, D,3 B, | A,2 A,2 G,2 G,2 | C,2 F,2 D,2 D,2 | %55
 C,2 C,2 B,,3 C, | D,4 D,4 | G,,8 |] %58

